icons/harbor-11.svg

<?xml version="1.0" encoding="UTF-8" standalone="no"?>
<!-- Created with Inkscape (http://www.inkscape.org/) -->

<svg
   xmlns:dc="http://purl.org/dc/elements/1.1/"
   xmlns:cc="http://creativecommons.org/ns#"
   xmlns:rdf="http://www.w3.org/1999/02/22-rdf-syntax-ns#"
   xmlns:svg="http://www.w3.org/2000/svg"
   xmlns="http://www.w3.org/2000/svg"
   xmlns:sodipodi="http://sodipodi.sourceforge.net/DTD/sodipodi-0.dtd"
   xmlns:inkscape="http://www.inkscape.org/namespaces/inkscape"
   version="1.1"
   width="11"
   height="11"
   id="svg4764"
   inkscape:version="0.91 r13725"
   sodipodi:docname="harbor-11.svg"
   viewBox="0 0 11 11">
  <sodipodi:namedview
     pagecolor="#ffffff"
     bordercolor="#666666"
     borderopacity="1"
     objecttolerance="10"
     gridtolerance="10"
     guidetolerance="10"
     inkscape:pageopacity="0"
     inkscape:pageshadow="2"
     inkscape:window-width="1920"
     inkscape:window-height="959"
     id="namedview3352"
     inkscape:document-units="px"
     showgrid="false"
     inkscape:snap-bbox="true"
     inkscape:object-paths="true"
     inkscape:bbox-paths="true"
     inkscape:bbox-nodes="true"
     inkscape:object-nodes="true"
     inkscape:snap-intersection-paths="true"
     inkscape:snap-smooth-nodes="true"
     inkscape:zoom="16"
     inkscape:cx="2.9243644"
     inkscape:cy="4.0762194"
     inkscape:current-layer="svg4764"
     inkscape:window-x="76"
     inkscape:window-y="0"
     inkscape:window-maximized="0"
     inkscape:snap-nodes="true"
     inkscape:snap-bbox-edge-midpoints="true">
    <inkscape:grid
       type="xygrid"
       id="grid3407"
       spacingx="0.5"
       spacingy="0.5"
       color="#ff0000"
       opacity="0.1254902"
       empspacing="2" />
  </sodipodi:namedview>
  <defs
     id="defs4766" />
  <metadata
     id="metadata4769">
    <rdf:RDF>
      <cc:Work
         rdf:about="">
        <dc:format>image/svg+xml</dc:format>
        <dc:type
           rdf:resource="http://purl.org/dc/dcmitype/StillImage" />
        <dc:title></dc:title>
      </cc:Work>
    </rdf:RDF>
  </metadata>
  <path
     style="opacity:1;fill:#000000;fill-opacity:1;stroke:none;stroke-width:1;stroke-linecap:round;stroke-linejoin:miter;stroke-miterlimit:4;stroke-dasharray:none;stroke-dashoffset:0;stroke-opacity:1"
     d="M 5.5 0 C 4.1192881 0 3 1.1192881 3 2.5 C 3.0018327 3.5981385 3.721663 4.5466119 4.75 4.8710938 L 4.75 9.4160156 C 4.0910131 9.3010557 3.4118878 9.0407167 2.8574219 8.5585938 C 2.088577 7.8900621 1.5 6.8296669 1.5 5 C 1.5055122 4.5773634 1.1609023 4.2336371 0.73828125 4.2402344 C 0.3248373 4.2467008 -0.00539271 4.5865407 0 5 C 0 7.1703331 0.77305943 8.7349379 1.8730469 9.6914062 C 2.9730343 10.647875 4.3333184 11 5.5 11 C 6.6666816 11 8.0269657 10.647875 9.1269531 9.6914062 C 10.226941 8.7349379 11 7.1703331 11 5 C 11.014344 3.985758 9.4856561 3.985758 9.5 5 C 9.5 6.8296669 8.911423 7.8900621 8.1425781 8.5585938 C 7.5881122 9.0407167 6.9089869 9.3010557 6.25 9.4160156 L 6.25 4.875 C 7.2795194 4.5500036 7.9998809 3.5994972 8 2.5 C 8 1.1192881 6.8807119 0 5.5 0 z M 5.5 1.5 C 6.0522847 1.5 6.5 1.9477153 6.5 2.5 C 6.5 3.0522847 6.0522847 3.5 5.5 3.5 C 4.9477153 3.5 4.5 3.0522847 4.5 2.5 C 4.5 1.9477153 4.9477153 1.5 5.5 1.5 z "
     id="path5263" />
</svg>

<?xml version="1.0" encoding="utf-8"?>
<!-- Generator: Adobe Illustrator 19.2.1, SVG Export Plug-In . SVG Version: 6.00 Build 0)  -->
<!DOCTYPE svg PUBLIC "-//W3C//DTD SVG 1.1//EN" "http://www.w3.org/Graphics/SVG/1.1/DTD/svg11.dtd">
<svg version="1.1"
	 id="svg4764" inkscape:version="0.91 r13725" sodipodi:docname="harbor-11.svg" xmlns:cc="http://creativecommons.org/ns#" xmlns:dc="http://purl.org/dc/elements/1.1/" xmlns:inkscape="http://www.inkscape.org/namespaces/inkscape" xmlns:rdf="http://www.w3.org/1999/02/22-rdf-syntax-ns#" xmlns:sodipodi="http://sodipodi.sourceforge.net/DTD/sodipodi-0.dtd" xmlns:svg="http://www.w3.org/2000/svg"
	 xmlns="http://www.w3.org/2000/svg" xmlns:xlink="http://www.w3.org/1999/xlink" x="0px" y="0px" width="11px" height="11px"
	 viewBox="0 0 11 11" style="enable-background:new 0 0 11 11;" xml:space="preserve">
<path id="path5263" d="M5.5,0C4.1193,0,3,1.1193,3,2.5c0.0018,1.0981,0.7217,2.0466,1.75,2.3711V9.416
	c-0.659-0.115-1.3381-0.3753-1.8926-0.8574C2.0886,7.8901,1.5,6.8297,1.5,5c0.0055-0.4226-0.3391-0.7664-0.7617-0.7598
	C0.3248,4.2467-0.0054,4.5865,0,5c0,2.1703,0.7731,3.7349,1.873,4.6914S4.3333,11,5.5,11s2.527-0.3521,3.627-1.3086S11,7.1703,11,5
	c0.0143-1.0142-1.5143-1.0142-1.5,0c0,1.8297-0.5886,2.8901-1.3574,3.5586C7.5881,9.0407,6.909,9.3011,6.25,9.416V4.875
	C7.2795,4.55,7.9999,3.5995,8,2.5C8,1.1193,6.8807,0,5.5,0z M5.5,1.5c0.5523,0,1,0.4477,1,1s-0.4477,1-1,1s-1-0.4477-1-1
	S4.9477,1.5,5.5,1.5z"/>
</svg>
